!!!id: 18xx:2786
!!!COM: Walczyński, Franciszek
!!!OTL: Praeludia organi op. 5 – Andantino
!!!PDT: 1894
!!!SMS-siglum: PL-KOZmzk
!!!SMS-shelfmark: mzk/m/159
!!!NIFC-rismID: 1001118858
!!!URL-scan: https://repozytorium.nifc.pl/islandora/object/pl-kozmzk%3A2265/datastream/PDF/view
!!!ONB-nifc: UWAGA: numeracja plików zgodna z numeracją źrodłową
!!!SMS-variant:
!!!SMS-altvar:
!!!OMD:43. Andantino.
**kern	**kern	**dynam
*part2	*part1	*part1
*staff2	*staff1	*
*I"[Organo]	*	*
*clefF4	*clefG2	*
*k[b-e-]	*k[b-e-]	*
*M3/8	*M3/8	*
=1	=1	=1
*	*^	*
(8G\L	(4.b-/	4.g\	p
8B-\	.	.	.
8d\J	.	.	.
=2	=2	=2	=2
8e-\L	4.a/	4.f#X\	<
8d\	.	.	.
8c\J	.	.	[
=3	=3	=3	=3
8B-\L	8g/L	4.d\	>
8A\	8a/	.	.
8G\J	8b-/J	.	]]
=4	=4	=4	=4
8G\L	4.a/)	4.d\	.
8En\	.	.	.
8F#X\J)	.	.	.
=5	=5	=5	=5
(4.G\	(4.b-/	8d\L	fp
.	.	8c#X\	.
.	.	8d\J	.
=6	=6	=6	=6
*	*	*	*^
4.Fn\	4.bn/	8a-X\L	<	.
.	.	8g\	.	.
.	.	8f\J	.	.
=7	=7	=7	=7	=7
4.E-X\	4cc/	8g\L	.	.
.	.	8an\	.	.
.	8cc#X/	[8g\J	.	ff
=8	=8	=8	=8	=8
4.D;\)	4.dd;/)	8g\L]	[	.
.	.	8en\	.	.
.	.	8f#X;\J	.	.
*	*	*	*v	*v
=9	=9	=9	=9
!	!	!	!LO:DY:b=2
(8d\L	4.rg	4.r	p
8c\)	.	.	.
8A'\J	.	.	.
=10	=10	=10	=10
(8c\L	4.rg	4.r	.
8B-\)	.	.	.
8G'\J	.	.	.
!!LO:LB:g=original
=11	=11	=11	=11
(4.F#X\	4.r	(8dd\L	p
.	.	8cc\)	.
.	.	8a'\J	.
=12	=12	=12	=12
(4G\	4.r	(8cc\L	.
.	.	8b-\)	.
8A\))	.	8g'\J	.
=13	=13	=13	=13
!	!	!	!LO:DY:a
(4.Bn\	(8gg/L	[4.g\	f
.	8ff/)	.	.
.	8dd'/J	.	.
=14	=14	=14	=14
4c\	(8ff/L	4.g\_	.
.	8ee-/)	.	.
8e-\)	8cc'/J	.	.
=15	=15	=15	=15
(4.d\	(8b-X/L	8g\L]	p
.	8cc/	8a\	.
.	8b-/J	8g\J	.
=16	=16	=16	=16
4.D\)	8a/L	8f#X\L	>
.	8b-/	16g\L	.
.	.	16d\J	.
.	8a/J	8c\J	]
=17	=17	=17	=17
*	*	*	*^
!	!	!	!LO:DY:a	!LO:DY:b=2
(8G\L	[4.g/)	(4.Bn\	p	p
8Fn\)	.	.	.	.
8D'\J	.	.	.	.
*	*	*	*v	*v
=18	=18	=18	=18
(8F\L	4.g/]	4c\)	.
8E-\)	.	.	.
!	!	!	!LO:HP:a
8C'\J	.	([8e-\	<
=19	=19	=19	=19
!LO:TX:a:i:t=rit.	!	!	!
4.D\	4.f#X/	8e-\L]	.
.	.	8d\	.
.	.	8c\J)	[[
=20	=20	=20	=20
*	*	*	*^
*	*	*	*	*^
!	!	!	!LO:HP:a	!	!LO:DY:b=2
(8G\L	[4.g/	[4.B-\	>	pp	pp
8D\	.	.	.	.	.
8BB-\J	.	.	.	.	.
=21	=21	=21	=21	=21	=21
4.GG;/)	4.g;/]	4.B-\]	]	.	.
*	*	*	*	*v	*v
*	*	*	*v	*v
*	*v	*v	*
==	==	==
*-	*-	*-
!!!system-decoration: {(s1,s2)}
!!!ENC: Krzysztof Stępień
!!!END: 2021-07-26
!!!EED: Andrzej Borzym
!!!EST: 2021-08-08
